; generated by SuperSlicer 2.4 on 2024-03-19 at 15:16:13 UTC

; 

; external perimeters extrusion width = 0.42mm
; perimeters extrusion width = 0.45mm
; infill extrusion width = 0.45mm
; solid infill extrusion width = 0.45mm
; top infill extrusion width = 0.42mm
; first layer extrusion width = 0.56mm

; object:{"name":"Tattoo_stirrer_v6","id":"Tattoo_stirrer_v6.stl id:0 copy 0","object_center":[99.999983,99.999999,0.000000],"boundingbox_center":[99.999983,99.999999,75.749107],"boundingbox_size":[4.693612,11.036479,151.498215]}
; Total objects to print: 1
M486 T1
; plater:{"center":[99.999983,99.999999,0.000000],"boundingbox_center":[99.999983,99.999999,75.749107],"boundingbox_size":[4.693612,11.036479,151.498215]}

M104 S200 ; set temperature
;TYPE:Custom
G28 ; home all axes
G1 Z5 F5000 ; lift nozzle
M107
G21 ; set units to millimeters
G90 ; use absolute coordinates
M82 ; use absolute distances for extrusion
G92 E0
; Filament gcode
;_TOOLCHANGE 0
M109 S200 ; set temperature and wait for it to be reached
M107
;LAYER_CHANGE
;Z:0.3
;HEIGHT:0.3
G1 Z0.3 F7800
G1 E-2 F2400
G1 X94.187 Y94.213 F7800
G1 E0 F2400
;TYPE:Skirt
;WIDTH:0.52
G1 F1035
G1 X92.832 Y95.664 E0.11279
G1 X92.285 Y96.624 E0.17561
G1 X91.794 Y97.866 E0.2515
G1 X91.432 Y99.867 E0.36703
G1 X91.759 Y102.033 E0.49149
G1 X91.903 Y102.458 E0.51699
G1 X92.653 Y104.052 E0.61712
G1 X94.187 Y105.787 E0.74872
G1 X95.88 Y106.746 E0.8593
G1 X98.067 Y107.143 E0.98563
G1 X101.933 Y107.143 E1.20528
G1 X103.777 Y106.863 E1.31129
G1 X105.813 Y105.787 E1.44217
G1 X107.168 Y104.335 E1.555
G1 X107.715 Y103.376 E1.61778
G1 X108.239 Y102.017 E1.70051
G1 X108.572 Y100.18 E1.80661
G1 X108.239 Y97.982 E1.93294
G1 X107.612 Y96.418 E2.02869
G1 X106.959 Y95.38 E2.09837
G1 X106.071 Y94.418 E2.1728
G1 X104.166 Y93.273 E2.29913
G1 X101.979 Y92.869 E2.42547
G1 X98.086 Y92.857 E2.6467
G1 X96.223 Y93.137 E2.75378
G1 X94.24 Y94.185 E2.88125
G92 E0
G1 E-2 F2400
; printing object Tattoo_stirrer_v6.stl id:0 copy 0
M486 S0
G1 X98.19 Y99.365 F7800
G1 E0 F2400
;TYPE:External perimeter
;WIDTH:0.56
G1 F1035
G1 X101.816 Y99.377 E0.22414
G1 X101.885 Y99.515 E0.23368
G1 X102.051 Y100 E0.26539
G1 X101.885 Y100.485 E0.29711
G1 X101.81 Y100.635 E0.30744
G1 X98.192 Y100.635 E0.53109
G1 X98.064 Y100.361 E0.5498
G1 X97.942 Y100.001 E0.57331
G1 X98.115 Y99.516 E0.6051
G1 X98.163 Y99.419 E0.6118
;WIPE_START
G1 X98.501 Y99.617 F7800
;WIPE_END
G1 X98.199 Y99.958
;TYPE:Gap fill
;WIDTH:0.703613
G1 F1035
G1 X98.302 Y99.967 E0.62005
G1 X98.457 Y99.982 E0.63245
G1 X98.532 Y99.991 E0.63853
;WIDTH:0.76159
G1 X98.615 Y100.001 E0.64575
;WIDTH:0.877178
G1 X99.999 Y100.003 E0.78608
G1 X101.383 Y100.005 E0.92641
;WIDTH:0.753325
G1 X101.545 Y100.016 E0.94036
;WIDTH:0.685448
G1 X101.699 Y100.027 E0.95237
G1 X101.799 Y100.034 E0.96007
M106 S84.15
;LAYER_CHANGE
;Z:0.5
;HEIGHT:0.2
; stop printing object Tattoo_stirrer_v6.stl id:0 copy 0
M486 S-1
G1 Z0.5 F7800
; printing object Tattoo_stirrer_v6.stl id:0 copy 0
M486 S0
G1 X101.289 Y100
;TYPE:Internal perimeter
;WIDTH:0.45
G1 F600
G1 X101.001 Y100.923 E0.9928
G1 X100.99 Y100.958 E0.99405
M106 S84.15
;TYPE:Overhang perimeter
;WIDTH:0.4
;HEIGHT:0.4
G1 F3600
G1 X100.976 Y101.002 E0.99646
G1 X100.961 Y101.05 E0.99908
G1 X100.843 Y101.428 E1.01979
G1 X99.155 Y101.421 E1.10794
G1 X99.039 Y101.05 E1.12827
G1 X99.024 Y101.002 E1.13089
;TYPE:Internal perimeter
;WIDTH:0.45
;HEIGHT:0.2
G1 F600
G1 X99.01 Y100.958 E1.13245
G1 X98.999 Y100.923 E1.1337
G1 X98.711 Y100 E1.16643
G1 X98.998 Y99.08 E1.19905
G1 X99.009 Y99.045 E1.2003
M106 S84.15
;TYPE:Overhang perimeter
;WIDTH:0.4
;HEIGHT:0.4
G1 F3600
G1 X99.023 Y99.001 E1.20271
G1 X99.038 Y98.953 E1.20533
G1 X99.157 Y98.572 E1.22619
G1 X100.845 Y98.579 E1.31435
G1 X100.964 Y98.959 E1.33516
G1 X100.979 Y99.007 E1.33779
;TYPE:Internal perimeter
;WIDTH:0.45
;HEIGHT:0.2
G1 F600
G1 X100.992 Y99.051 E1.33935
G1 X101.003 Y99.086 E1.3406
G1 X101.271 Y99.943 E1.37098
M106 S84.15
G1 X101.716 Y100 F7800
G1 F600
G1 X101.427 Y100.923 E1.4037
G1 X101.416 Y100.958 E1.40495
M106 S84.15
;TYPE:Overhang perimeter
;WIDTH:0.4
;HEIGHT:0.4
G1 F3600
G1 X101.402 Y101.002 E1.40736
G1 X101.387 Y101.05 E1.40999
G1 X101.205 Y101.632 E1.44183
G1 X101.116 Y101.836 E1.4535
G1 X98.874 Y101.827 E1.57062
G1 X98.796 Y101.638 E1.58132
G1 X98.613 Y101.05 E1.6135
G1 X98.597 Y101.002 E1.61613
;TYPE:Internal perimeter
;WIDTH:0.45
;HEIGHT:0.2
G1 F600
G1 X98.584 Y100.958 E1.61769
G1 X98.573 Y100.923 E1.61894
G1 X98.284 Y100 E1.65166
G1 X98.572 Y99.079 E1.68433
G1 X98.583 Y99.044 E1.68558
M106 S84.15
;TYPE:Overhang perimeter
;WIDTH:0.4
;HEIGHT:0.4
G1 F3600
G1 X98.597 Y99 E1.68799
G1 X98.612 Y98.952 E1.69061
G1 X98.795 Y98.368 E1.72255
G1 X98.884 Y98.164 E1.73421
G1 X101.126 Y98.173 E1.85133
G1 X101.203 Y98.362 E1.86204
G1 X101.391 Y98.96 E1.89477
G1 X101.406 Y99.008 E1.8974
;TYPE:Internal perimeter
;WIDTH:0.45
;HEIGHT:0.2
G1 F600
G1 X101.419 Y99.052 E1.89896
G1 X101.43 Y99.088 E1.90021
G1 X101.698 Y99.943 E1.93054
M106 S84.15
G1 X102.127 Y100 F7800
;TYPE:External perimeter
;WIDTH:0.42
G1 F600
M106 S255
G1 X101.838 Y100.923 E1.96086
G1 X101.827 Y100.958 E1.96201
M106 S84.15
;TYPE:Overhang perimeter
;WIDTH:0.4
;HEIGHT:0.4
G1 F3600
G1 X101.813 Y101.002 E1.96442
G1 X101.798 Y101.05 E1.96705
G1 X101.573 Y101.769 E2.00641
G1 X101.372 Y102.229 E2.03266
G1 X98.633 Y102.218 E2.17578
G1 X98.576 Y102.133 E2.18111
G1 X98.427 Y101.771 E2.20158
G1 X98.202 Y101.05 E2.24106
G1 X98.187 Y101.002 E2.24369
;TYPE:External perimeter
;WIDTH:0.42
;HEIGHT:0.2
G1 F600
M106 S255
G1 X98.173 Y100.958 E2.24513
G1 X98.162 Y100.923 E2.24629
G1 X97.873 Y100 E2.2766
G1 X98.162 Y99.078 E2.30691
G1 X98.173 Y99.042 E2.30806
M106 S84.15
;TYPE:Overhang perimeter
;WIDTH:0.4
;HEIGHT:0.4
G1 F3600
G1 X98.187 Y98.998 E2.31047
G1 X98.202 Y98.951 E2.31309
G1 X98.427 Y98.231 E2.35248
G1 X98.627 Y97.771 E2.37872
G1 X101.367 Y97.782 E2.52185
G1 X101.424 Y97.867 E2.52718
G1 X101.573 Y98.229 E2.54765
G1 X101.802 Y98.962 E2.58775
G1 X101.817 Y99.01 E2.59038
;TYPE:External perimeter
;WIDTH:0.42
;HEIGHT:0.2
G1 F600
M106 S255
G1 X101.831 Y99.054 E2.59183
G1 X101.842 Y99.089 E2.59298
G1 X102.109 Y99.943 E2.62103
M106 S84.15
;WIPE_START
G1 X101.762 Y100.164 F7800
;WIPE_END
G92 E0
G1 E-2 F2400
G1 X99.928 Y101.302 F7800
G1 E0 F2400
;TYPE:Solid infill
;WIDTH:0.469765
G1 F600
G1 X100.863 Y100.367 E0.04673
G1 X100.978 Y100 E0.06033
G1 X100.901 Y99.754 E0.06945
G1 X99.529 Y101.126 E0.13801
G1 X99.374 Y101.125 E0.14349
G1 X99.29 Y100.857 E0.15343
G1 X99.274 Y100.805 E0.15533
G1 X100.764 Y99.315 E0.22979
G1 X100.713 Y99.152 E0.23582
G1 X100.627 Y98.877 E0.24602
G1 X99.137 Y100.367 E0.32048
G1 X99.022 Y100 E0.33404
G1 X99.065 Y99.862 E0.33914
G1 X100.055 Y98.873 E0.3886
G1 X99.481 Y98.87 E0.40886
G1 X99.06 Y99.292 E0.42991
M106 S84.15
M106 S170.85
;LAYER_CHANGE
;Z:0.7
;HEIGHT:0.2
; stop printing object Tattoo_stirrer_v6.stl id:0 copy 0
M486 S-1
G1 Z0.7 F7800
; printing object Tattoo_stirrer_v6.stl id:0 copy 0
M486 S0
G1 X98.707 Y99.991
;TYPE:Internal perimeter
;WIDTH:0.45
G1 F600
G1 X99.477 Y97.556 E0.51635
G1 X99.488 Y97.521 E0.5176
M106 S170.85
;TYPE:Overhang perimeter
;WIDTH:0.4
;HEIGHT:0.4
G1 F3600
G1 X99.502 Y97.477 E0.52001
G1 X99.517 Y97.429 E0.52263
G1 X99.541 Y97.353 E0.52681
G1 X100.46 Y97.358 E0.57482
G1 X100.484 Y97.433 E0.57893
G1 X100.499 Y97.481 E0.58156
;TYPE:Internal perimeter
;WIDTH:0.45
;HEIGHT:0.2
G1 F600
G1 X100.513 Y97.525 E0.58313
G1 X100.524 Y97.561 E0.58438
G1 X101.293 Y100.009 E0.67123
G1 X100.523 Y102.444 E0.75768
G1 X100.512 Y102.479 E0.75893
M106 S170.85
;TYPE:Overhang perimeter
;WIDTH:0.4
;HEIGHT:0.4
G1 F3600
G1 X100.498 Y102.523 E0.76133
G1 X100.483 Y102.571 E0.76396
G1 X100.458 Y102.65 E0.76832
G1 X99.542 Y102.65 E0.81613
G1 X99.516 Y102.567 E0.82071
G1 X99.501 Y102.519 E0.82334
;TYPE:Internal perimeter
;WIDTH:0.45
;HEIGHT:0.2
G1 F600
G1 X99.487 Y102.475 E0.8249
G1 X99.476 Y102.439 E0.82615
G1 X98.725 Y100.049 E0.91097
M106 S170.85
G1 X98.281 Y99.991 F7800
G1 F600
G1 X99.051 Y97.555 E0.99747
G1 X99.062 Y97.519 E0.99872
M106 S170.85
;TYPE:Overhang perimeter
;WIDTH:0.4
;HEIGHT:0.4
G1 F3600
G1 X99.076 Y97.475 E1.00112
G1 X99.091 Y97.428 E1.00375
G1 X99.182 Y97.138 E1.01963
G1 X99.258 Y96.944 E1.03047
G1 X100.741 Y96.952 E1.10797
G1 X100.819 Y97.143 E1.11872
G1 X100.911 Y97.435 E1.13471
G1 X100.926 Y97.483 E1.13734
;TYPE:Internal perimeter
;WIDTH:0.45
;HEIGHT:0.2
G1 F600
G1 X100.94 Y97.527 E1.13891
G1 X100.951 Y97.562 E1.14016
G1 X101.719 Y100.009 E1.22696
G1 X100.949 Y102.445 E1.31346
G1 X100.938 Y102.481 E1.31471
M106 S170.85
;TYPE:Overhang perimeter
;WIDTH:0.4
;HEIGHT:0.4
G1 F3600
G1 X100.924 Y102.525 E1.31711
G1 X100.909 Y102.573 E1.31974
G1 X100.818 Y102.862 E1.33562
G1 X100.742 Y103.057 E1.34656
G1 X99.271 Y103.057 E1.42338
G1 X99.179 Y102.851 E1.43518
G1 X99.089 Y102.565 E1.45085
G1 X99.074 Y102.517 E1.45348
;TYPE:Internal perimeter
;WIDTH:0.45
;HEIGHT:0.2
G1 F600
G1 X99.06 Y102.473 E1.45505
G1 X99.049 Y102.438 E1.4563
G1 X98.299 Y100.048 E1.54107
M106 S170.85
G1 X97.87 Y99.991 F7800
;TYPE:External perimeter
;WIDTH:0.42
G1 F600
M106 S255
G1 X98.64 Y97.553 E1.62123
G1 X98.651 Y97.518 E1.62239
M106 S170.85
;TYPE:Overhang perimeter
;WIDTH:0.4
;HEIGHT:0.4
G1 F3600
G1 X98.665 Y97.474 E1.6248
G1 X98.68 Y97.426 E1.62742
G1 X98.812 Y97.007 E1.65035
G1 X98.912 Y96.75 E1.66478
G1 X99.02 Y96.551 E1.6766
G1 X100.982 Y96.562 E1.77913
G1 X101.039 Y96.647 E1.78447
G1 X101.188 Y97.009 E1.80495
G1 X101.322 Y97.437 E1.82834
G1 X101.337 Y97.485 E1.83098
;TYPE:External perimeter
;WIDTH:0.42
;HEIGHT:0.2
G1 F600
M106 S255
G1 X101.351 Y97.529 E1.83242
G1 X101.362 Y97.564 E1.83358
G1 X102.13 Y100.009 E1.91395
G1 X101.36 Y102.447 E1.99411
G1 X101.349 Y102.482 E1.99527
M106 S170.85
;TYPE:Overhang perimeter
;WIDTH:0.4
;HEIGHT:0.4
G1 F3600
G1 X101.335 Y102.526 E1.99767
G1 X101.32 Y102.574 E2.0003
G1 X101.188 Y102.993 E2.02322
G1 X101.087 Y103.25 E2.03766
G1 X100.98 Y103.45 E2.04951
G1 X99.017 Y103.45 E2.15203
G1 X98.812 Y102.991 E2.1783
G1 X98.678 Y102.563 E2.20169
G1 X98.662 Y102.515 E2.20432
;TYPE:External perimeter
;WIDTH:0.42
;HEIGHT:0.2
G1 F600
M106 S255
G1 X98.649 Y102.471 E2.20577
G1 X98.638 Y102.436 E2.20693
G1 X97.888 Y100.048 E2.28541
M106 S170.85
;WIPE_START
G1 X98.235 Y99.827 F7800
;WIPE_END
G92 E0
G1 E-2 F2400
G1 X99.908 Y98.386 F7800
G1 E0 F2400
;TYPE:Bridge infill
;WIDTH:0.4
;HEIGHT:0.4
G1 F3600
G1 X100.195 Y97.478 E0.04972
G92 E0
G1 E-2 F2400
G1 X101.021 Y99.546 F7800
G1 E0 F2400
;TYPE:Top solid infill
;WIDTH:0.457352
;HEIGHT:0.2
G1 F900
G1 X100.062 Y98.587 E0.0463
G1 X99.527 Y98.585 E0.06459
G1 X100.985 Y100.044 E0.135
G1 X100.979 Y100.064 E0.13572
G1 X100.857 Y100.449 E0.14951
G1 X99.339 Y98.931 E0.2228
G1 X99.211 Y99.336 E0.23731
G1 X100.729 Y100.854 E0.31059
G1 X100.601 Y101.259 E0.3251
G1 X99.083 Y99.742 E0.39839
G1 X99.021 Y99.936 E0.40536
G1 X99.004 Y99.992 E0.40735
G1 X99.027 Y100.064 E0.40993
G1 X99.097 Y100.289 E0.41799
G1 X100.222 Y101.414 E0.47229
G1 X99.686 Y101.412 E0.49057
G1 X99.094 Y100.819 E0.51919
G1 X99.557 Y102.29 F7800
;TYPE:Bridge infill
;WIDTH:0.4
;HEIGHT:0.4
G1 F3600
G1 X99.716 Y101.785 E0.54687
G1 X100.182 Y101.787 E0.57119
G1 X99.947 Y102.529 E0.61185
M106 S252.45
;LAYER_CHANGE
;Z:0.9
;HEIGHT:0.2
; stop printing object Tattoo_stirrer_v6.stl id:0 copy 0
M486 S-1
G1 Z0.9 F7800
; printing object Tattoo_stirrer_v6.stl id:0 copy 0
M486 S0
G1 X100.329 Y103.067
;TYPE:Internal perimeter
;WIDTH:0.45
G1 F710
G1 X100.14 Y103.667 E0.63315
G1 X100.128 Y103.703 E0.6344
G1 X100.119 Y103.731 E0.63541
G1 X99.881 Y103.731 E0.6435
G1 X99.86 Y103.667 E0.64575
G1 X99.672 Y103.067 E0.66705
G1 X100.269 Y103.067 E0.68725
G1 X100.884 Y102.66 F7800
G1 F710
G1 X100.566 Y103.667 E0.723
G1 X100.555 Y103.703 E0.72425
G1 X100.541 Y103.747 E0.72581
;TYPE:Overhang perimeter
;WIDTH:0.4
;HEIGHT:0.4
M106 S255
G1 F3600
G1 X100.526 Y103.795 E0.72844
G1 X100.48 Y103.94 E0.73639
G1 X100.356 Y104.277 E0.75517
G1 X99.651 Y104.276 E0.79201
G1 X99.518 Y103.935 E0.81114
G1 X99.474 Y103.795 E0.81882
G1 X99.459 Y103.747 E0.82145
G1 X99.445 Y103.703 E0.82386
M106 S252.45
;TYPE:Internal perimeter
;WIDTH:0.45
;HEIGHT:0.2
G1 F710
G1 X99.434 Y103.667 E0.82511
G1 X99.117 Y102.66 E0.86084
G1 X100.824 Y102.66 E0.91861
G92 E0
G1 E-2 F2400
G1 X101.969 Y100.441 F7800
G1 E0 F2400
;TYPE:External perimeter
;WIDTH:0.42
G1 F710
G1 X101.853 Y100.888 E0.01449
G1 X100.977 Y103.667 E0.10584
G1 X100.966 Y103.703 E0.107
G1 X100.952 Y103.747 E0.10845
;TYPE:Overhang perimeter
;WIDTH:0.4
;HEIGHT:0.4
M106 S255
G1 F3600
G1 X100.937 Y103.795 E0.11108
G1 X100.852 Y104.067 E0.12598
G1 X100.701 Y104.475 E0.14871
G1 X100.604 Y104.669 E0.16007
G1 X99.401 Y104.668 E0.22293
G1 X99.348 Y104.58 E0.22827
G1 X99.148 Y104.065 E0.25714
G1 X99.063 Y103.795 E0.27195
G1 X99.048 Y103.747 E0.27457
G1 X99.034 Y103.703 E0.27698
M106 S252.45
;TYPE:External perimeter
;WIDTH:0.42
;HEIGHT:0.2
G1 F710
G1 X99.023 Y103.667 E0.27814
G1 X98.101 Y100.733 E0.37457
G1 X98.013 Y100.328 E0.38757
G1 X101.984 Y100.328 E0.51208
G1 X101.977 Y100.382 E0.51376
;WIPE_START
G1 X101.588 Y100.564 F7800
;WIPE_END
G1 X101.575 Y101.419
;TYPE:Top solid infill
;WIDTH:0.437265
G1 F900
G1 X100.617 Y102.377 E0.558
G1 X100.084 Y102.377 E0.57541
G1 X101.573 Y100.889 E0.64414
G1 X101.596 Y100.815 E0.64667
G1 X101.652 Y100.596 E0.65404
G1 X101.332 Y100.596 E0.66451
G1 X99.55 Y102.377 E0.74674
G1 X99.017 Y102.377 E0.76415
G1 X100.799 Y100.596 E0.84639
G1 X100.265 Y100.596 E0.86379
G1 X98.799 Y102.062 E0.93149
G1 X98.671 Y101.657 E0.94537
G1 X99.732 Y100.596 E0.99433
G1 X99.199 Y100.596 E1.01174
G1 X98.544 Y101.251 E1.04197
G1 X98.416 Y100.845 E1.05586
G1 X98.828 Y100.434 E1.07484
G92 E0
G1 E-2 F2400
G1 X99.672 Y96.933 F7800
G1 E0 F2400
;TYPE:Internal perimeter
;WIDTH:0.45
G1 F710
G1 X99.859 Y96.338 E0.02111
G1 X99.87 Y96.303 E0.02236
G1 X99.88 Y96.269 E0.02354
G1 X100.119 Y96.269 E0.03163
G1 X100.13 Y96.304 E0.03287
G1 X100.141 Y96.339 E0.03412
G1 X100.328 Y96.933 E0.05518
G1 X99.732 Y96.933 E0.07536
G1 X99.117 Y97.34 F7800
G1 F710
G1 X99.433 Y96.335 E0.111
G1 X99.444 Y96.3 E0.11224
G1 X99.458 Y96.256 E0.1138
;TYPE:Overhang perimeter
;WIDTH:0.4
;HEIGHT:0.4
M106 S255
G1 F3600
G1 X99.473 Y96.208 E0.11643
G1 X99.519 Y96.06 E0.12455
G1 X99.644 Y95.723 E0.14331
G1 X99.816 Y95.723 E0.15228
G1 X100.349 Y95.724 E0.18016
G1 X100.482 Y96.065 E0.19928
G1 X100.529 Y96.214 E0.20745
G1 X100.544 Y96.262 E0.21008
G1 X100.558 Y96.306 E0.2125
M106 S252.45
;TYPE:Internal perimeter
;WIDTH:0.45
;HEIGHT:0.2
G1 F710
G1 X100.569 Y96.342 E0.21375
G1 X100.883 Y97.34 E0.24917
G1 X99.177 Y97.34 E0.30689
G92 E0
G1 E-2 F2400
G1 X98.013 Y99.672 F7800
G1 E0 F2400
;TYPE:External perimeter
;WIDTH:0.42
G1 F710
G1 X98.101 Y99.267 E0.013
G1 X99.023 Y96.333 E0.10941
G1 X99.034 Y96.298 E0.11056
G1 X99.047 Y96.254 E0.11201
;TYPE:Overhang perimeter
;WIDTH:0.4
;HEIGHT:0.4
M106 S255
G1 F3600
G1 X99.063 Y96.206 E0.11463
G1 X99.148 Y95.933 E0.12958
G1 X99.299 Y95.525 E0.1523
G1 X99.396 Y95.331 E0.16366
G1 X99.816 Y95.331 E0.1856
M106 S252.45
M106 S255
G1 X100.599 Y95.332 E0.22652
G1 X100.652 Y95.42 E0.23186
G1 X100.852 Y95.935 E0.26073
G1 X100.941 Y96.217 E0.27614
G1 X100.956 Y96.265 E0.27878
G1 X100.97 Y96.309 E0.28119
M106 S252.45
;TYPE:External perimeter
;WIDTH:0.42
;HEIGHT:0.2
G1 F710
G1 X100.981 Y96.344 E0.28235
G1 X101.899 Y99.267 E0.37841
G1 X101.987 Y99.672 E0.3914
G1 X98.073 Y99.672 E0.51413
;WIPE_START
G1 X98.26 Y99.357 F7800
;WIPE_END
G92 E0
G1 E-2 F2400
G1 X101.127 Y99.566 F7800
G1 E0 F2400
;TYPE:Top solid infill
;WIDTH:0.43633
G1 F900
G1 X101.573 Y99.121 E0.02052
G1 X101.445 Y98.715 E0.03437
G1 X100.756 Y99.404 E0.06611
G1 X100.223 Y99.404 E0.08349
G1 X101.318 Y98.309 E0.13392
G1 X101.19 Y97.903 E0.14777
G1 X99.69 Y99.404 E0.21689
G1 X99.156 Y99.404 E0.23426
G1 X100.938 Y97.623 E0.31632
G1 X100.405 Y97.623 E0.33369
G1 X98.623 Y99.404 E0.41575
G1 X98.338 Y99.404 E0.42504
G1 X98.452 Y99.042 E0.4374
G1 X99.871 Y97.623 E0.50278
G1 X99.338 Y97.623 E0.52015
G1 X98.448 Y98.512 E0.56113
;LAYER_CHANGE
;Z:1.1
;HEIGHT:0.2
; stop printing object Tattoo_stirrer_v6.stl id:0 copy 0
M486 S-1
G1 Z1.1 F7800
G92 E0
G1 E-2 F2400
