; generated by SuperSlicer 2.4 on 2024-03-11 at 21:36:33 UTC

; 

; external perimeters extrusion width = 0.42mm
; perimeters extrusion width = 0.45mm
; infill extrusion width = 0.45mm
; solid infill extrusion width = 0.45mm
; top infill extrusion width = 0.42mm
; first layer extrusion width = 0.56mm

; object:{"name":"Shamrock_Cookie_Cutter_3","id":"Shamrock_Cookie_Cutter_3.stl id:0 copy 0","object_center":[100.000589,100.000496,0.000000],"boundingbox_center":[100.000589,100.000496,5.350000],"boundingbox_size":[93.693996,95.719997,10.700000]}
; Total objects to print: 1
M486 T1
; plater:{"center":[100.000589,100.000496,0.000000],"boundingbox_center":[100.000589,100.000496,5.350000],"boundingbox_size":[93.693996,95.719997,10.700000]}

M104 S200 ; set temperature
;TYPE:Custom
G28 ; home all axes
G1 Z5 F5000 ; lift nozzle
M107
G21 ; set units to millimeters
G90 ; use absolute coordinates
M82 ; use absolute distances for extrusion
G92 E0
; Filament gcode
;_TOOLCHANGE 0
M109 S200 ; set temperature and wait for it to be reached
M107
;LAYER_CHANGE
;Z:0.3
;HEIGHT:0.3
G1 Z0.3 F7800
G1 E-2 F2400
G1 X64.798 Y64.214 F7800
G1 E0 F2400
;TYPE:Skirt
;WIDTH:0.52
G1 F1800
G1 X63.996 Y65.12 E0.06877
G1 X61.97 Y67.911 E0.26476
G1 X50.019 Y86.363 E1.51406
G1 X49.56 Y87.229 E1.56974
G1 X48.335 Y90.055 E1.74477
G1 X47.999 Y91.054 E1.80469
G1 X47.272 Y94.031 E1.97884
G1 X47.103 Y95.167 E2.04411
G1 X46.935 Y98.229 E2.21838
G1 X46.991 Y99.472 E2.28905
G1 X47.442 Y102.556 E2.46617
G1 X47.757 Y103.797 E2.53893
G1 X49.07 Y107.28 E2.75047
G1 X64.063 Y137.767 E4.68113
G1 X65.656 Y140.819 E4.87679
G1 X66.329 Y141.846 E4.94656
G1 X68.425 Y144.443 E5.13621
G1 X69.403 Y145.412 E5.21443
G1 X71.68 Y147.217 E5.37955
G1 X72.618 Y147.832 E5.44332
G1 X75.133 Y149.173 E5.60529
G1 X76.07 Y149.578 E5.66326
G1 X79.645 Y150.716 E5.87649
G1 X82.853 Y151.287 E6.06162
G1 X106.067 Y154.019 E7.38991
G1 X107.238 Y154.084 E7.4566
G1 X108.339 Y154.029 E7.51923
G1 X113.423 Y153.323 E7.81091
G1 X115.251 Y152.774 E7.91936
G1 X119.886 Y150.56 E8.21126
G1 X121.061 Y149.828 E8.28991
G1 X123.541 Y147.87 E8.46948
G1 X124.418 Y147.027 E8.53864
G1 X147.285 Y119.365 E10.57814
G1 X149.273 Y116.736 E10.76547
G1 X149.876 Y115.759 E10.83073
G1 X151.218 Y113.057 E11.00217
G1 X151.615 Y112.044 E11.06396
G1 X152.468 Y109.145 E11.23568
G1 X152.679 Y108.117 E11.29534
G1 X153.033 Y105.116 E11.46706
G1 X153.067 Y104.069 E11.52661
G1 X152.913 Y101.055 E11.69811
G1 X152.764 Y99.98 E11.75979
G1 X151.858 Y96.27 E11.97678
G1 X143.96 Y75.016 E13.26528
G1 X143.458 Y73.973 E13.33107
G1 X141.411 Y70.573 E13.55659
G1 X140.725 Y69.642 E13.62229
G1 X138.714 Y67.385 E13.79407
G1 X137.862 Y66.592 E13.86026
G1 X135.483 Y64.762 E14.03082
G1 X113.55 Y49.46 E15.55058
G1 X112.523 Y48.88 E15.61759
G1 X109.252 Y47.422 E15.8211
G1 X108.259 Y47.077 E15.88084
G1 X104.727 Y46.174 E16.08801
G1 X103.301 Y45.981 E16.1698
G1 X99.714 Y45.914 E16.37367
G1 X97.776 Y46.185 E16.48488
G1 X94.337 Y47.237 E16.68925
G1 X93.261 Y47.68 E16.75539
G1 X71.617 Y59.059 E18.14499
G1 X68.261 Y61.148 E18.36961
G1 X67.339 Y61.855 E18.43563
G1 X64.842 Y64.174 E18.62925
G92 E0
G1 E-2 F2400
; printing object Shamrock_Cookie_Cutter_3.stl id:0 copy 0
M486 S0
G1 X97.381 Y55.54 F7800
G1 E0 F2400
;TYPE:Internal perimeter
;WIDTH:0.56
G1 F1800
G1 X96.404 Y56.734 E0.09534
G1 X95.808 Y59.148 E0.24907
G1 X95.619 Y66.533 E0.70571
G1 X95.946 Y75.046 E1.23239
G1 X95.849 Y80.866 E1.59216
G1 X95.535 Y80.928 E1.61193
G1 X93.409 Y76.034 E1.94176
G1 X90.57 Y71.52 E2.27144
G1 X88.705 Y69.663 E2.4341
G1 X86.509 Y68.281 E2.59452
G1 X83.9 Y67.48 E2.7632
G1 X80.83 Y67.356 E2.95318
G1 X77.986 Y67.955 E3.1328
G1 X75.489 Y69.141 E3.3037
G1 X73.356 Y70.811 E3.47118
G1 X71.554 Y72.895 E3.64147
G1 X69.141 Y77.704 E3.97406
G1 X68.255 Y82.797 E4.29364
G1 X67.616 Y83.978 E4.37661
G1 X66.64 Y84.996 E4.46378
G1 X63.86 Y86.941 E4.67353
G1 X61.008 Y89.048 E4.89276
G1 X59.141 Y91.711 E5.09378
G1 X57.888 Y94.092 E5.26011
G1 X57.251 Y96.484 E5.41313
G1 X57.137 Y98.929 E5.56444
G1 X57.512 Y101.344 E5.71552
G1 X58.35 Y103.652 E5.8673
G1 X59.624 Y105.778 E6.02049
G1 X61.311 Y107.644 E6.17602
G1 X63.414 Y109.185 E6.33717
G1 X67.39 Y111.211 E6.613
G1 X71.755 Y112.323 E6.89148
G1 X76.263 Y112.732 E7.17129
G1 X79.844 Y112.681 E7.39268
G1 X76.814 Y116.566 E7.69725
G1 X75.054 Y119.011 E7.88349
G1 X73.71 Y121.756 E8.07243
G1 X72.351 Y126.626 E8.38495
G1 X72.528 Y131.733 E8.70085
G1 X73.286 Y134.237 E8.86255
G1 X74.506 Y136.495 E9.02121
G1 X76.241 Y138.465 E9.18349
G1 X78.532 Y140.072 E9.3565
G1 X82.671 Y141.535 E9.62786
G1 X87.064 Y141.781 E9.89982
G1 X91.415 Y141.052 E10.17252
G1 X95.149 Y139.712 E10.41777
G1 X95.409 Y139.737 E10.4339
G1 X96.915 Y140.696 E10.54427
G1 X98.988 Y141.86 E10.69128
G1 X101.381 Y142.971 E10.85433
G1 X104.891 Y143.954 E11.07965
G1 X108.496 Y144.205 E11.30305
G1 X110.958 Y143.864 E11.45666
G1 X113.367 Y143.055 E11.61376
G1 X115.839 Y141.553 E11.79257
G1 X117.797 Y139.606 E11.96329
G1 X119.245 Y137.321 E12.13051
G1 X120.236 Y134.751 E12.30078
G1 X120.873 Y129.397 E12.6341
G1 X119.929 Y123.929 E12.97707
G1 X119.271 Y121.936 E13.10682
G1 X117.924 Y119.518 E13.27791
G1 X116.837 Y117.423 E13.42386
G1 X116.675 Y116.583 E13.47671
G1 X122.324 Y117.911 E13.83545
G1 X128.517 Y118.067 E14.21838
G1 X131.605 Y117.557 E14.41189
G1 X134.522 Y116.593 E14.60174
G1 X137.22 Y115.119 E14.79181
G1 X139.619 Y113.076 E14.98658
G1 X141.318 Y110.808 E15.16177
G1 X142.34 Y108.297 E15.3294
G1 X142.719 Y105.663 E15.49389
G1 X142.53 Y102.995 E15.65921
G1 X141.838 Y100.381 E15.82637
G1 X140.683 Y97.848 E15.99843
G1 X137.386 Y93.656 E16.32814
G1 X135.903 Y92.492 E16.4447
G1 X135.286 Y91.404 E16.52203
G1 X135.082 Y90.076 E16.6051
G1 X135.181 Y88.547 E16.69979
G1 X135.57 Y85.244 E16.90536
G1 X135.502 Y83.509 E17.01272
G1 X134.942 Y81.821 E17.12262
G1 X134.301 Y79.701 E17.25957
G1 X133.159 Y77.561 E17.4095
G1 X129.91 Y74.162 E17.70018
G1 X125.63 Y72.093 E17.99404
G1 X123.141 Y71.691 E18.14985
G1 X120.665 Y71.821 E18.30313
G1 X117.973 Y72.367 E18.47297
G1 X115.713 Y73.354 E18.62539
G1 X112.475 Y76.243 E18.89367
G1 X109.951 Y80.07 E19.17704
G1 X108.423 Y82.612 E19.36038
G1 X108.135 Y82.536 E19.37881
G1 X108.082 Y80.08 E19.53067
G1 X108.308 Y75.087 E19.83962
G1 X109.505 Y67.741 E20.29969
G1 X110.039 Y64.066 E20.52923
G1 X109.882 Y59.727 E20.79767
G1 X106.867 Y58.184 E21.00702
G1 X104.036 Y57.337 E21.18973
G1 X97.438 Y55.555 E21.61215
G1 X97.561 Y56.102 F7800
G1 F1800
G1 X96.858 Y56.961 E21.68075
G1 X96.302 Y59.214 E21.82424
G1 X96.115 Y66.529 E22.27657
G1 X96.442 Y75.041 E22.80311
G1 X96.328 Y81.854 E23.22435
G1 X96.269 Y82.142 E23.24248
G1 X96.065 Y82.661 E23.27699
G1 X95.883 Y82.78 E23.29042
G1 X95.611 Y82.647 E23.30913
G1 X95.2 Y81.4 E23.39031
G1 X92.969 Y76.266 E23.73632
G1 X90.18 Y71.831 E24.06021
G1 X88.395 Y70.053 E24.21598
G1 X86.301 Y68.735 E24.36892
G1 X83.816 Y67.973 E24.52957
G1 X80.871 Y67.854 E24.71176
G1 X78.146 Y68.427 E24.88394
G1 X75.751 Y69.565 E25.04781
G1 X73.699 Y71.171 E25.20891
G1 X71.97 Y73.172 E25.37241
G1 X69.617 Y77.861 E25.69668
G1 X68.729 Y82.962 E26.01674
G1 X68.02 Y84.272 E26.10885
G1 X66.964 Y85.374 E26.20316
G1 X64.15 Y87.344 E26.41554
G1 X61.367 Y89.399 E26.62938
G1 X59.565 Y91.97 E26.82345
G1 X58.353 Y94.274 E26.98439
G1 X57.744 Y96.56 E27.13067
G1 X57.634 Y98.902 E27.27561
G1 X57.995 Y101.22 E27.42062
G1 X58.8 Y103.438 E27.56648
G1 X60.024 Y105.481 E27.71372
G1 X61.645 Y107.274 E27.86313
G1 X63.675 Y108.762 E28.01868
G1 X67.565 Y110.745 E28.28862
G1 X71.839 Y111.833 E28.56124
G1 X76.282 Y112.236 E28.83701
G1 X80.505 Y112.176 E29.09807
G1 X80.758 Y112.315 E29.11594
G1 X77.211 Y116.863 E29.47249
G1 X75.481 Y119.267 E29.65555
G1 X74.176 Y121.933 E29.83908
G1 X72.849 Y126.685 E30.14406
G1 X73.021 Y131.651 E30.45123
G1 X73.746 Y134.045 E30.60584
G1 X74.915 Y136.21 E30.75791
G1 X76.574 Y138.093 E30.91306
G1 X78.761 Y139.627 E31.07822
G1 X82.77 Y141.044 E31.34102
G1 X87.036 Y141.283 E31.60519
G1 X91.289 Y140.571 E31.87174
G1 X95.085 Y139.209 E32.12105
G1 X95.574 Y139.254 E32.15139
G1 X97.169 Y140.27 E32.26832
G1 X99.214 Y141.419 E32.4133
G1 X101.553 Y142.504 E32.57268
G1 X104.976 Y143.463 E32.7924
G1 X108.479 Y143.707 E33.00949
G1 X110.844 Y143.38 E33.15705
G1 X113.156 Y142.603 E33.30786
G1 X115.531 Y141.161 E33.47962
G1 X117.408 Y139.294 E33.64326
G1 X118.8 Y137.097 E33.80402
G1 X119.751 Y134.631 E33.96743
G1 X120.372 Y129.41 E34.29244
G1 X119.447 Y124.05 E34.62867
G1 X118.815 Y122.136 E34.75325
G1 X117.488 Y119.753 E34.92188
G1 X116.364 Y117.587 E35.07272
G1 X116.207 Y116.775 E35.12385
G1 X116.45 Y116.167 E35.16433
G1 X116.755 Y116.093 E35.18374
G1 X122.388 Y117.417 E35.54141
G1 X128.483 Y117.571 E35.91827
G1 X131.487 Y117.074 E36.1065
G1 X134.324 Y116.137 E36.29119
G1 X136.938 Y114.709 E36.47532
G1 X139.255 Y112.735 E36.66351
G1 X140.883 Y110.562 E36.83133
G1 X141.858 Y108.166 E36.99125
G1 X142.221 Y105.645 E37.14871
G1 X142.039 Y103.077 E37.30786
G1 X141.37 Y100.548 E37.46953
G1 X140.257 Y98.108 E37.63533
G1 X137.034 Y94.009 E37.95768
G1 X135.52 Y92.822 E38.0766
G1 X134.81 Y91.569 E38.16562
G1 X134.584 Y90.097 E38.25765
G1 X134.687 Y88.502 E38.35648
G1 X135.073 Y85.225 E38.56046
G1 X135.009 Y83.598 E38.66108
G1 X134.469 Y81.971 E38.76706
G1 X133.841 Y79.891 E38.90139
G1 X132.754 Y77.854 E39.0441
G1 X129.613 Y74.569 E39.32504
G1 X125.479 Y72.571 E39.60889
G1 X123.115 Y72.189 E39.75695
G1 X120.728 Y72.314 E39.90469
G1 X118.123 Y72.843 E40.06902
G1 X115.984 Y73.776 E40.21329
G1 X112.853 Y76.57 E40.47268
G1 X110.37 Y80.334 E40.75142
G1 X107.965 Y84.338 E41.04016
G1 X107.677 Y84.262 E41.0586
G1 X107.587 Y80.074 E41.31754
G1 X107.814 Y75.036 E41.62929
G1 X109.015 Y67.666 E42.09088
G1 X109.542 Y64.04 E42.31739
G1 X109.397 Y60.035 E42.56507
G1 X106.682 Y58.646 E42.75363
G1 X103.9 Y57.813 E42.93314
G1 X97.619 Y56.117 E43.3353
G1 X97.742 Y56.664 F7800
;TYPE:External perimeter
G1 F1800
G1 X97.313 Y57.188 E43.37716
G1 X96.796 Y59.281 E43.51041
G1 X96.61 Y66.526 E43.95844
G1 X96.938 Y75.036 E44.48484
G1 X96.823 Y81.909 E44.90982
G1 X96.745 Y82.283 E44.93343
G1 X96.469 Y82.99 E44.98034
G1 X95.919 Y83.348 E45.02092
G1 X95.206 Y83.001 E45.06994
G1 X94.737 Y81.577 E45.16266
G1 X92.53 Y76.498 E45.50494
G1 X89.791 Y72.143 E45.82302
G1 X88.084 Y70.443 E45.9719
G1 X86.092 Y69.19 E46.11737
G1 X83.732 Y68.465 E46.26999
G1 X80.913 Y68.351 E46.4444
G1 X78.305 Y68.9 E46.60912
G1 X76.013 Y69.989 E46.76598
G1 X74.043 Y71.532 E46.9207
G1 X72.385 Y73.45 E47.07741
G1 X70.093 Y78.018 E47.39334
G1 X69.204 Y83.126 E47.71389
G1 X68.424 Y84.567 E47.81513
G1 X67.288 Y85.752 E47.91659
G1 X64.439 Y87.746 E48.13159
G1 X61.727 Y89.749 E48.34004
G1 X59.989 Y92.228 E48.52717
G1 X58.817 Y94.455 E48.68271
G1 X58.236 Y96.636 E48.82226
G1 X58.132 Y98.876 E48.96083
G1 X58.477 Y101.096 E49.09976
G1 X59.25 Y103.224 E49.2397
G1 X60.425 Y105.185 E49.381
G1 X61.979 Y106.904 E49.52429
G1 X63.935 Y108.339 E49.67424
G1 X67.741 Y110.278 E49.93829
G1 X71.923 Y111.343 E50.20505
G1 X76.301 Y111.74 E50.47678
G1 X80.629 Y111.679 E50.74433
G1 X81.185 Y111.984 E50.78355
G1 X81.163 Y112.602 E50.82177
G1 X77.607 Y117.161 E51.17915
G1 X75.908 Y119.522 E51.35902
G1 X74.641 Y122.11 E51.53716
G1 X73.347 Y126.745 E51.83459
G1 X73.514 Y131.57 E52.13302
G1 X74.206 Y133.854 E52.28054
G1 X75.324 Y135.925 E52.42604
G1 X76.906 Y137.722 E52.57404
G1 X78.99 Y139.183 E52.73136
G1 X82.868 Y140.553 E52.9856
G1 X87.009 Y140.785 E53.24198
G1 X91.164 Y140.09 E53.50237
G1 X95.022 Y138.705 E53.75575
G1 X95.739 Y138.772 E53.8003
G1 X97.424 Y139.845 E53.92378
G1 X99.44 Y140.977 E54.06673
G1 X101.725 Y142.038 E54.22245
G1 X105.061 Y142.972 E54.43656
G1 X108.462 Y143.209 E54.64734
G1 X110.73 Y142.895 E54.78886
G1 X112.946 Y142.151 E54.93339
G1 X115.223 Y140.768 E55.09809
G1 X117.019 Y138.982 E55.25465
G1 X118.355 Y136.873 E55.40895
G1 X119.266 Y134.51 E55.56549
G1 X119.871 Y129.423 E55.88219
G1 X118.965 Y124.17 E56.21169
G1 X118.359 Y122.336 E56.33109
G1 X117.051 Y119.988 E56.49726
G1 X115.891 Y117.752 E56.653
G1 X115.693 Y116.726 E56.71756
G1 X116.085 Y115.746 E56.78284
G1 X116.754 Y115.583 E56.82537
G1 X122.452 Y116.923 E57.1872
G1 X128.448 Y117.074 E57.558
G1 X131.368 Y116.591 E57.74093
G1 X134.126 Y115.68 E57.92047
G1 X136.655 Y114.298 E58.09865
G1 X138.892 Y112.393 E58.28027
G1 X140.448 Y110.316 E58.44071
G1 X141.376 Y108.035 E58.59294
G1 X141.723 Y105.627 E58.74336
G1 X141.548 Y103.158 E58.89633
G1 X140.901 Y100.716 E59.05252
G1 X139.83 Y98.368 E59.21205
G1 X136.681 Y94.362 E59.52705
G1 X135.137 Y93.151 E59.64834
G1 X134.334 Y91.734 E59.74903
G1 X134.086 Y90.119 E59.85003
G1 X134.194 Y88.457 E59.953
G1 X134.576 Y85.205 E60.15538
G1 X134.517 Y83.688 E60.24927
G1 X133.997 Y82.121 E60.35133
G1 X133.381 Y80.081 E60.48305
G1 X132.349 Y78.148 E60.61852
G1 X129.317 Y74.976 E60.88972
G1 X125.329 Y73.049 E61.16356
G1 X123.088 Y72.686 E61.30388
G1 X120.791 Y72.807 E61.44608
G1 X118.273 Y73.318 E61.60489
G1 X116.255 Y74.199 E61.74102
G1 X113.231 Y76.897 E61.99152
G1 X110.79 Y80.598 E62.26562
G1 X108.254 Y84.82 E62.57003
G1 X107.628 Y85.064 E62.61157
G1 X107.187 Y84.566 E62.65269
G1 X107.091 Y80.068 E62.93082
G1 X107.321 Y74.984 E63.24537
G1 X108.525 Y67.59 E63.70849
G1 X109.045 Y64.013 E63.93196
G1 X108.912 Y60.344 E64.15889
G1 X106.496 Y59.108 E64.32666
G1 X103.764 Y58.29 E64.50295
G1 X97.8 Y56.68 E64.88487
;WIPE_START
G1 X97.4 Y56.457 F7800
;WIPE_END
G92 E0
G1 E-2 F2400
G1 X113.58 Y70.815 F7800
G1 E0 F2400
;TYPE:Internal perimeter
G1 F1800
G1 X115.03 Y69.913 E0.10555
G1 X117.616 Y68.858 E0.27821
G1 X120.33 Y68.306 E0.44941
G1 X123.11 Y68.239 E0.62133
G1 X125.873 Y68.64 E0.79394
G1 X128.531 Y69.492 E0.96647
G1 X131 Y70.775 E1.13843
G1 X133.195 Y72.463 E1.30964
G1 X135.048 Y74.543 E1.4818
G1 X136.96 Y77.718 E1.71094
G1 X138.108 Y81.216 E1.93851
G1 X138.506 Y84.899 E2.16749
G1 X138.113 Y89.035 E2.42435
G1 X138.871 Y90.861 E2.54655
G1 X142.104 Y94.006 E2.82537
G1 X143.703 Y96.301 E2.99827
G1 X144.808 Y98.839 E3.16937
G1 X145.43 Y101.548 E3.34123
G1 X145.573 Y104.344 E3.51428
G1 X145.244 Y107.132 E3.6878
G1 X144.452 Y109.821 E3.86107
G1 X143.212 Y112.318 E4.0334
G1 X141.545 Y114.531 E4.20472
G1 X138.321 Y117.317 E4.46813
G1 X134.476 Y119.104 E4.73022
G1 X130.207 Y120.078 E5.00089
G1 X125.79 Y120.386 E5.27462
G1 X123.9 Y120.364 E5.39142
G1 X122.463 Y121.458 E5.50304
G1 X122.999 Y122.999 E5.60386
G1 X123.666 Y125.877 E5.78649
G1 X123.91 Y128.822 E5.96921
G1 X123.73 Y131.781 E6.15242
G1 X123.126 Y134.667 E6.33467
G1 X122.101 Y137.394 E6.5148
G1 X120.656 Y139.884 E6.69274
G1 X118.796 Y142.062 E6.86982
G1 X116.525 Y143.855 E7.04864
G1 X112.197 Y145.922 E7.3452
G1 X107.42 Y146.586 E7.64332
G1 X106.916 Y146.566 E7.67445
G1 X103.988 Y146.116 E7.85761
G1 X101.168 Y145.188 E8.0411
G1 X95.101 Y142.508 E8.45112
G1 X89.226 Y143.796 E8.82293
G1 X83.691 Y143.83 E9.16507
G1 X81.078 Y143.354 E9.32924
G1 X78.57 Y142.507 E9.49295
G1 X76.248 Y141.269 E9.65557
G1 X74.172 Y139.623 E9.81934
G1 X72.244 Y137.234 E10.00912
G1 X70.832 Y134.533 E10.19754
G1 X69.928 Y131.601 E10.38718
G1 X69.522 Y128.525 E10.57898
G1 X69.607 Y125.397 E10.77243
G1 X70.166 Y122.31 E10.96635
G1 X71.184 Y119.36 E11.15928
G1 X73.446 Y115.13 E11.45578
G1 X66.213 Y113.189 E11.91867
G1 X61.154 Y110.354 E12.27719
G1 X59.042 Y108.52 E12.45008
G1 X57.231 Y106.383 E12.62326
G1 X55.812 Y103.985 E12.79551
G1 X54.843 Y101.341 E12.96958
G1 X54.43 Y98.513 E13.14624
G1 X54.584 Y95.696 E13.32064
G1 X55.258 Y92.938 E13.49612
G1 X56.4 Y90.303 E13.67365
G1 X57.957 Y87.856 E13.85294
G1 X59.869 Y85.663 E14.03279
G1 X62.077 Y83.793 E14.21164
G1 X64.932 Y82.052 E14.41836
G1 X65.86 Y80.048 E14.55488
G1 X66.185 Y78.256 E14.66747
G1 X66.834 Y75.102 E14.86654
G1 X68.117 Y72.208 E15.06224
G1 X69.991 Y69.626 E15.25946
G1 X72.354 Y67.432 E15.45876
G1 X75.089 Y65.712 E15.65847
G1 X78.074 Y64.549 E15.85649
G1 X81.186 Y64.013 E16.05172
G1 X84.312 Y64.171 E16.2452
G1 X87.353 Y65.087 E16.44152
G1 X92.699 Y68.357 E16.82892
G1 X92.798 Y62.65 E17.18171
G1 X93.38 Y59.31 E17.39131
G1 X94.672 Y56.437 E17.58601
G1 X96.828 Y54.317 E17.77294
G1 X99.776 Y53.415 E17.96351
G1 X103.013 Y53.476 E18.16364
G1 X106.297 Y54.315 E18.3732
