; generated by Slic3r 1.3.0 on 2024-02-18 at 01:48:27

; external perimeters extrusion width = 0.44mm (3.38mm^3/s)
; perimeters extrusion width = 0.48mm (7.54mm^3/s)
; infill extrusion width = 0.48mm (10.05mm^3/s)
; solid infill extrusion width = 0.48mm (2.51mm^3/s)
; top infill extrusion width = 0.48mm (1.88mm^3/s)

M107
M104 S200 ; set temperature
G28 ; home all axes
G1 Z5 F5000 ; lift nozzle

; Filament gcode

M109 S200 ; set temperature and wait for it to be reached
G21 ; set units to millimeters
G90 ; use absolute coordinates
M82 ; use absolute distances for extrusion
G92 E0
G1 Z0.400 F7800.000
G1 E-2.00000 F2400.00000
G92 E0
G1 X92.845 Y132.599 F7800.000
G1 E2.00000 F2400.00000
G1 F607.296
G1 X93.868 Y132.143 E2.13296
G1 X94.342 Y131.982 E2.19249
G1 X94.898 Y131.842 E2.26054
G1 X95.866 Y131.654 E2.37769
G1 X96.442 Y131.568 E2.44679
G1 X97.028 Y131.532 E2.51657
G1 X97.595 Y131.545 E2.58386
G1 X98.597 Y131.610 E2.70322
G1 X99.360 Y131.718 E2.79473
G1 X99.991 Y131.876 E2.87188
G1 X101.011 Y132.206 E2.99927
G1 X103.077 Y133.334 E3.27880
G1 X103.239 Y133.464 E3.30354
G1 X104.842 Y135.325 E3.59520
G1 X104.923 Y135.464 E3.61433
G1 X105.724 Y137.630 E3.88856
G1 X105.743 Y139.939 E4.16278
G1 X104.389 Y143.002 E4.56052
G1 X104.295 Y143.121 E4.57861
G1 X102.574 Y144.660 E4.85284
G1 X101.234 Y145.301 E5.02922
G1 X100.970 Y145.393 E5.06235
G1 X99.687 Y145.702 E5.21911
G1 X98.635 Y145.812 E5.34474
G1 X97.555 Y145.834 E5.47309
G1 X96.345 Y145.822 E5.61682
G1 X95.278 Y145.733 E5.74389
G1 X94.226 Y145.542 E5.87094
G1 X93.165 Y145.178 E6.00410
G1 X93.002 Y145.107 E6.02523
G1 X91.080 Y143.828 E6.29945
G1 X90.065 Y142.604 E6.48823
G1 X89.988 Y142.484 E6.50514
G1 X89.087 Y140.358 E6.77936
G1 X88.960 Y138.053 E7.05359
G1 X89.452 Y136.207 E7.28046
G1 X89.511 Y136.067 E7.29851
G1 X90.811 Y134.086 E7.57989
G1 X92.797 Y132.635 E7.87202
G1 E5.87202 F2400.00000
G92 E0
G1 X99.093 Y138.875 F7800.000
G1 E2.00000 F2400.00000
G1 F1800
G1 X97.980 Y138.707 E2.12898
G1 F1800
G1 X97.187 Y138.682 E2.22923
G1 X96.758 Y138.721 E2.28359
G1 F1800
G1 X96.099 Y138.760 E2.36015
G1 F1800
G1 X95.654 Y138.780 E2.40667
G1 Z0.700 F7800.000
G1 X98.497 Y138.714 F7800.000
G1 F600
G1 X96.241 Y138.714 E2.52453
G1 X96.198 Y138.517 E2.53510
G1 X96.439 Y138.406 E2.54898
G1 X97.220 Y138.259 E2.59050
G1 X97.917 Y138.305 E2.62700
G1 X98.530 Y138.502 E2.66062
G1 X98.506 Y138.655 E2.66872
G1 X100.061 Y139.030 F7800.000

G1 F3600
G1 X99.763 Y139.093 E2.68464
G1 X99.161 Y139.112 E2.71613

G1 F1800
G1 X95.565 Y139.112 E2.88460

G1 F3600
G1 X94.979 Y139.093 E2.91521
G1 X94.663 Y139.015 E2.93223
G1 X95.494 Y138.402 E2.98622
G1 X96.318 Y138.025 E3.03354
G1 X97.196 Y137.859 E3.08023
G1 X97.993 Y137.912 E3.12192
G1 X98.844 Y138.186 E3.16867
G1 X99.658 Y138.669 E3.21813
G1 X100.016 Y138.990 E3.24323

G1 Z1.000 F7800.000
G1 X97.980 Y138.469 F7800.000
G1 F600
G1 X96.853 Y138.469 E3.30211
G1 X96.832 Y138.240 E3.31408
G1 X97.264 Y138.160 E3.33701
G1 X97.832 Y138.198 E3.36676
G1 X98.013 Y138.256 E3.37669
G1 X97.989 Y138.409 E3.38481
G1 X99.892 Y138.888 F7800.000
G1 F600
G1 X95.090 Y138.888 E3.63570
G1 X95.033 Y138.715 E3.64520
G1 X95.680 Y138.237 E3.68723
G1 X96.435 Y137.888 E3.73066
G1 X97.239 Y137.739 E3.77342
G1 X97.910 Y137.784 E3.80855
G1 X98.641 Y138.015 E3.84860
G1 X99.404 Y138.459 E3.89472
G1 X99.847 Y138.848 E3.92551
G1 X100.726 Y139.203 F7800.000

G1 F3600
G1 X100.496 Y139.267 E3.93798
G1 X100.379 Y139.277 E3.94415

G1 F1800
G1 X94.397 Y139.279 E4.22437

G1 F3600
G1 X94.244 Y139.268 E4.23239
G1 X94.003 Y139.192 E4.24557
G1 X94.347 Y138.832 E4.27160

G1 F1800
G1 X94.687 Y138.477 E4.29462
G1 X95.275 Y138.042 E4.32889

G1 F3600
G1 X95.476 Y137.893 E4.34197
G1 X96.313 Y137.507 E4.39012
G1 X97.216 Y137.339 E4.43809
G1 X97.984 Y137.391 E4.47833
G1 X98.803 Y137.649 E4.52318
G1 X99.637 Y138.135 E4.57362
G1 X99.751 Y138.235 E4.58151

G1 F1800
G1 X100.430 Y138.831 E4.62387

G1 F3600
G1 X100.691 Y139.154 E4.64555

M106 S255
G1 Z1.300 F7800.000
G1 X99.569 Y138.642 F7800.000
G1 F600
G1 X95.422 Y138.642 E4.86224
G1 X95.365 Y138.469 E4.87176
G1 X95.909 Y138.070 E4.90696
G1 X96.536 Y137.780 E4.94309
G1 X97.221 Y137.636 E4.97967
G1 X97.824 Y137.677 E5.01125
G1 X98.454 Y137.874 E5.04574
G1 X99.164 Y138.285 E5.08857
G1 X99.524 Y138.602 E5.11366
G1 X100.539 Y139.061 F7800.000
G1 F600
G1 X94.179 Y139.061 E5.44594
G1 X94.983 Y138.229 E5.50636
G1 X95.695 Y137.708 E5.55245
G1 X96.403 Y137.380 E5.59325
G1 X97.224 Y137.216 E5.63696
G1 X97.902 Y137.263 E5.67248
G1 X98.624 Y137.488 E5.71199
G1 X99.410 Y137.943 E5.75942
G1 X100.169 Y138.612 E5.81228
G1 X100.501 Y139.014 E5.83955
G1 X101.046 Y139.443 F7800.000
G1 F1800
G1 X100.891 Y139.458 E5.84684
G1 X93.725 Y139.445 E6.18258
M106 S255

G1 F3600
G1 X93.490 Y139.376 E6.19535
G1 X93.650 Y139.133 E6.21055
M106 S255

G1 F1800
G1 X93.915 Y138.762 E6.23191
G1 X94.721 Y137.929 E6.28622
G1 X95.278 Y137.521 E6.31858
M106 S255

G1 F3600
G1 X95.492 Y137.364 E6.33242
G1 X96.278 Y137.000 E6.37766
G1 X97.105 Y136.826 E6.42183
G1 X97.223 Y136.818 E6.42803
G1 X97.976 Y136.870 E6.46745
G1 X98.785 Y137.122 E6.51171
G1 X99.643 Y137.619 E6.56351
G1 X99.751 Y137.714 E6.57104
M106 S255

G1 F1800
G1 X100.455 Y138.335 E6.61501
G1 X101.122 Y139.143 E6.66412
M106 S255

G1 F3600
G1 X101.179 Y139.213 E6.66881
G1 X101.238 Y139.379 E6.67804
G1 X101.103 Y139.425 E6.68546
M106 S255

G1 E4.68546 F2400.00000
G92 E0
G1 X98.809 Y138.321 F7800.000
G1 E2.00000 F2400.00000
G1 F600
G1 X98.271 Y138.239 E2.02430
G1 F600
G1 X97.734 Y138.157 E2.05439
G1 F600
G1 X97.256 Y138.141 E2.08534
G1 X96.410 Y138.229 E2.14045
G1 F600
G1 X95.987 Y138.273 E2.16373
G1 Z1.600 F7800.000
G1 X100.222 Y138.815 F7800.000
G1 F600
G1 X94.497 Y138.815 E2.46284
G1 X95.226 Y138.054 E2.51788
G1 X95.909 Y137.550 E2.56224
G1 X96.572 Y137.242 E2.60044
G1 X97.241 Y137.116 E2.63602
G1 X97.817 Y137.156 E2.66615
G1 X98.532 Y137.386 E2.70542
G1 X99.180 Y137.775 E2.74491
G1 X99.867 Y138.384 E2.79284
G1 X100.184 Y138.769 E2.81890
G1 X101.054 Y139.234 F7800.000
G1 F600
G1 X93.693 Y139.234 E3.20345
G1 X94.221 Y138.498 E3.25079
G1 X94.948 Y137.739 E3.30570
G1 X95.694 Y137.188 E3.35414
G1 X96.482 Y136.831 E3.39934
G1 X97.241 Y136.696 E3.43959
G1 X97.894 Y136.742 E3.47380
G1 X98.631 Y136.969 E3.51410
G1 X99.429 Y137.436 E3.56240
G1 X100.169 Y138.092 E3.61406
G1 X100.878 Y138.952 E3.67230
G1 X101.022 Y139.183 E3.68651
G1 X101.563 Y139.601 F7800.000
G1 F1800
G1 X101.361 Y139.631 E3.69607
G1 X93.386 Y139.631 E4.06970
G1 X93.173 Y139.593 E4.07987
M106 S255

G1 F3600
G1 X93.088 Y139.562 E4.08457
G1 X93.102 Y139.431 E4.09144
M106 S255

G1 F1800
G1 X93.200 Y139.240 E4.10150
G1 X93.915 Y138.243 E4.15895
G1 X94.685 Y137.439 E4.21111
G1 X95.282 Y136.999 E4.24588
M106 S255

G1 F3600
G1 X95.491 Y136.845 E4.25942
G1 X96.273 Y136.481 E4.30451
G1 X97.082 Y136.309 E4.34772
G1 X97.240 Y136.298 E4.35600
G1 X97.968 Y136.348 E4.39408
G1 X98.775 Y136.598 E4.43823
G1 X98.917 Y136.665 E4.44645
G1 X99.665 Y137.115 E4.49204
G1 X99.758 Y137.198 E4.49855
M106 S255

G1 F1800
G1 X100.456 Y137.816 E4.54221
G1 X101.201 Y138.720 E4.59712
G1 X101.641 Y139.425 E4.63605
M106 S255

G1 F3600
G1 X101.659 Y139.563 E4.64333
G1 X101.619 Y139.579 E4.64557
M106 S255

G1 E2.64557 F2400.00000
G92 E0
G1 X99.086 Y138.559 F7800.000
G1 E2.00000 F2400.00000
G1 F679.235
G1 X99.412 Y138.233 E2.02555
G1 X99.076 Y137.941 E2.05025
G1 X98.457 Y138.559 E2.09872
G1 X97.829 Y138.559 E2.13357
G1 X98.681 Y137.707 E2.20036
G1 X98.471 Y137.584 E2.21383
G1 X98.246 Y137.514 E2.22694
G1 X97.200 Y138.559 E2.30890
G1 X96.572 Y138.559 E2.34375
G1 X97.735 Y137.396 E2.43495
G1 X97.428 Y137.375 E2.45197
G1 X97.059 Y137.443 E2.47281
G1 X95.943 Y138.559 E2.56030
G1 X95.315 Y138.559 E2.59510
G1 X95.667 Y138.207 E2.62270
G1 Z1.900 F7800.000
G1 X100.732 Y138.988 F7800.000
G1 F674.656
G1 X99.187 Y138.988 E2.70341
G1 X98.181 Y138.598 E2.75983
G1 X97.110 Y138.515 E2.81594
G1 X96.047 Y138.760 E2.87291
G1 X95.632 Y138.988 E2.89765
G1 X94.012 Y138.988 E2.98228
G1 X94.544 Y138.247 E3.02994
G1 X95.225 Y137.535 E3.08140
G1 X95.908 Y137.031 E3.12577
G1 X96.604 Y136.713 E3.16572
G1 X97.260 Y136.596 E3.20055
G1 X97.809 Y136.635 E3.22931
G1 X98.462 Y136.834 E3.26496
G1 X99.135 Y137.223 E3.30555
G1 X99.866 Y137.863 E3.35635
G1 X100.539 Y138.680 E3.41161
G1 X100.700 Y138.937 E3.42751
G1 X101.490 Y139.407 F7800.000
G1 F674.656
G1 X99.057 Y139.407 E3.55459
G1 X98.997 Y139.364 E3.55849
G1 X98.087 Y139.011 E3.60948
G1 X97.141 Y138.938 E3.65901
G1 X96.198 Y139.155 E3.70958
G1 X95.740 Y139.407 E3.73691
G1 X93.276 Y139.407 E3.86563
G1 X93.534 Y138.938 E3.89362
G1 X94.221 Y137.979 E3.95525
G1 X94.947 Y137.220 E4.01015
G1 X95.693 Y136.669 E4.05859
G1 X96.404 Y136.337 E4.09958
G1 X97.114 Y136.186 E4.13748
G1 X97.260 Y136.176 E4.14512
G1 X97.886 Y136.220 E4.17793
G1 X98.613 Y136.442 E4.21763
G1 X98.753 Y136.508 E4.22571
G1 X99.484 Y136.960 E4.27060
G1 X100.169 Y137.572 E4.31861
G1 X100.879 Y138.434 E4.37695
G1 X101.458 Y139.356 E4.43383
G1 X102.018 Y139.745 F7800.000
G1 F1800
G1 X101.906 Y139.789 E4.43950
G1 X101.766 Y139.804 E4.44609
G1 X98.929 Y139.804 E4.57898
G1 X98.806 Y139.716 E4.58610
G1 X97.998 Y139.402 E4.62671
G1 X97.171 Y139.338 E4.66554
G1 X96.341 Y139.530 E4.70545
G1 X95.842 Y139.804 E4.73214
G1 X92.977 Y139.804 E4.86635
G1 X92.844 Y139.790 E4.87263
G1 X92.728 Y139.741 E4.87853
M106 S255

G1 F3600
G1 X92.719 Y139.721 E4.87972
M106 S255

G1 F1800
G1 X92.727 Y139.583 E4.88619
G1 X93.197 Y138.726 E4.93198
G1 X93.914 Y137.724 E4.98969
G1 X94.684 Y136.920 E5.04185
G1 X95.281 Y136.480 E5.07662
M106 S255

G1 F3600
G1 X95.490 Y136.326 E5.09014
G1 X96.259 Y135.967 E5.13449
G1 X96.399 Y135.922 E5.14219
G1 X97.061 Y135.792 E5.17745
G1 X97.260 Y135.778 E5.18784
G1 X97.959 Y135.827 E5.22448
G1 X98.756 Y136.071 E5.26802
G1 X98.939 Y136.157 E5.27860
G1 X99.587 Y136.542 E5.31797
G1 X99.771 Y136.684 E5.33011
M106 S255

G1 F1800
G1 X100.456 Y137.296 E5.37315
G1 X101.202 Y138.201 E5.42809
G1 X101.883 Y139.287 E5.48816
G1 X102.003 Y139.532 E5.50091
G1 X102.040 Y139.695 E5.50872
M106 S255

G1 F3600
G1 X102.040 Y139.701 E5.50904
M106 S255

G1 E3.50904 F2400.00000
G92 E0
G1 X99.727 Y138.318 F7800.000
G1 E2.00000 F2400.00000
G1 F899.541
G1 X99.399 Y137.990 E2.02632
G1 X98.807 Y137.461 E2.07138
G1 X98.128 Y137.057 E2.11624
G1 X97.687 Y136.922 E2.14243
G1 X99.497 Y138.732 E2.28775
G1 X99.429 Y138.732 E2.29163
G1 X98.489 Y138.368 E2.34885
G1 X96.997 Y136.876 E2.46862
G1 X96.567 Y136.953 E2.49345
G1 X96.473 Y136.996 E2.49929
G1 X97.774 Y138.297 E2.60372
G1 X97.241 Y138.255 E2.63407
G1 X97.117 Y138.284 E2.64126
G1 X96.031 Y137.198 E2.72845
G1 X95.959 Y137.231 E2.73296
G1 X95.649 Y137.460 E2.75483
G1 X96.594 Y138.405 E2.83069
G1 X96.071 Y138.525 E2.86117
G1 X95.288 Y137.742 E2.92404
G1 X94.973 Y138.071 E2.94989
G1 X95.635 Y138.732 E3.00300
G1 X94.991 Y138.732 E3.03955
G1 X94.665 Y138.406 E3.06571
G1 Z2.200 F7800.000
G1 E1.06571 F2400.00000
G92 E0
G1 X101.167 Y139.162 F7800.000
G1 E2.00000 F2400.00000
G1 F803.023
G1 X100.139 Y139.162 E2.05366
G1 X99.189 Y138.468 E2.11514
G1 X98.181 Y138.078 E2.17161
G1 X97.117 Y137.995 E2.22735
G1 X96.041 Y138.243 E2.28505
G1 X95.081 Y138.772 E2.34227
G1 X94.647 Y139.162 E2.37278
G1 X93.602 Y139.162 E2.42735
G1 X93.888 Y138.643 E2.45829
G1 X94.544 Y137.726 E2.51719
G1 X95.281 Y136.967 E2.57245
G1 X95.906 Y136.513 E2.61281
G1 X96.522 Y136.222 E2.64842
G1 X97.147 Y136.085 E2.68185
G1 X97.284 Y136.075 E2.68903
G1 X97.867 Y136.123 E2.71957
G1 X98.513 Y136.339 E2.75516
G1 X99.185 Y136.740 E2.79607
G1 X99.908 Y137.389 E2.84680
G1 X100.538 Y138.159 E2.89881
G1 X101.135 Y139.111 E2.95747
G1 X101.835 Y139.580 F7800.000
G1 F803.023
G1 X99.956 Y139.580 E3.05564
G1 X99.826 Y139.439 E3.06569
G1 X98.988 Y138.840 E3.11951
G1 X98.087 Y138.491 E3.16999
G1 X97.148 Y138.418 E3.21917
G1 X96.192 Y138.638 E3.27046
G1 X95.325 Y139.116 E3.32213
G1 X94.807 Y139.580 E3.35851
G1 X92.893 Y139.580 E3.45850
G1 X93.533 Y138.419 E3.52778
G1 X94.221 Y137.459 E3.58948
G1 X94.885 Y136.759 E3.63992
G1 X95.018 Y136.641 E3.64919
G1 X95.691 Y136.151 E3.69270
G1 X96.353 Y135.839 E3.73092
G1 X96.637 Y135.757 E3.74637
G1 X97.092 Y135.669 E3.77058
G1 X97.282 Y135.655 E3.78053
G1 X97.800 Y135.687 E3.80764
G1 X97.968 Y135.715 E3.81650
G1 X98.689 Y135.956 E3.85623
G1 X99.433 Y136.400 E3.90152
G1 X100.222 Y137.111 E3.95700
G1 X100.879 Y137.914 E4.01122
G1 X101.540 Y138.969 E4.07625
G1 X101.809 Y139.526 E4.10859
G1 X102.304 Y139.934 F7800.000
G1 F1800
G1 X102.236 Y139.964 E4.11209
G1 X102.122 Y139.978 E4.11745
G1 X99.782 Y139.978 E4.22707
G1 X99.561 Y139.739 E4.24232
G1 X98.798 Y139.192 E4.28631
G1 X97.998 Y138.883 E4.32650
G1 X97.178 Y138.819 E4.36502
G1 X96.335 Y139.013 E4.40556
G1 X95.557 Y139.442 E4.44718
G1 X94.959 Y139.978 E4.48480
G1 X92.639 Y139.978 E4.59350
G1 X92.509 Y139.963 E4.59962
G1 X92.434 Y139.932 E4.60341
G1 X92.382 Y139.883 E4.60676
G1 X92.380 Y139.803 E4.61055
G1 X92.551 Y139.379 E4.63196
G1 X93.196 Y138.207 E4.69463
G1 X93.914 Y137.205 E4.75235
G1 X94.609 Y136.473 E4.79966
G1 X94.769 Y136.331 E4.80966
G1 X95.261 Y135.972 E4.83823
M106 S255

G1 F3600
G1 X95.488 Y135.807 E4.85286
G1 X96.295 Y135.433 E4.89933
G1 X97.040 Y135.275 E4.93913
G1 X97.280 Y135.257 E4.95171
G1 X97.844 Y135.292 E4.98123
G1 X98.063 Y135.328 E4.99281
G1 X98.855 Y135.593 E5.03648
G1 X99.668 Y136.078 E5.08590
G1 X99.752 Y136.152 E5.09179
M106 S255

G1 F1800
G1 X100.386 Y136.708 E5.13128
G1 X100.519 Y136.848 E5.14033
G1 X101.202 Y137.682 E5.19084
G1 X101.888 Y138.776 E5.25135
G1 X102.352 Y139.738 E5.30135
G1 X102.348 Y139.893 E5.30861
G1 X102.234 Y139.909 F7800.000
G1 E3.30861 F2400.00000
G92 E0
G1 X100.247 Y138.906 F7800.000
G1 E2.00000 F2400.00000
G1 F1070.7
G1 X100.572 Y138.580 E2.02565
G1 X100.324 Y138.197 E2.05103
G1 X99.825 Y138.696 E2.09025
G1 X99.460 Y138.430 E2.11539
G1 X100.037 Y137.853 E2.16076
G1 X99.750 Y137.509 E2.18569
G1 X99.063 Y138.196 E2.23979
G1 X98.608 Y138.020 E2.26694
G1 X99.426 Y137.202 E2.33132
G1 X99.088 Y136.909 E2.35622
G1 X98.152 Y137.844 E2.42981
G1 X97.579 Y137.787 E2.46189
G1 X98.692 Y136.674 E2.54952
G1 X98.500 Y136.559 E2.56199
G1 X98.257 Y136.478 E2.57623
G1 X96.994 Y137.741 E2.67568
G1 X96.922 Y137.735 E2.67966
G1 X96.202 Y137.901 E2.72079
G1 X97.753 Y136.351 E2.84282
G1 X97.369 Y136.338 E2.86422
G1 X97.073 Y136.400 E2.88106
G1 X95.137 Y138.336 E3.03343
G1 X94.906 Y138.463 E3.04811
G1 X94.885 Y138.373 E3.05327
G1 X94.486 Y138.463 E3.07606
G1 X94.704 Y138.158 E3.09688
G1 X95.720 Y137.122 E3.17769
G1 X94.741 Y138.755 F7800.000
G1 F1070.7
G1 X93.970 Y138.928 E3.18026
M106 S252.45
G1 Z2.500 F7800.000
G1 E1.18026 F2400.00000
G92 E0
G1 X101.504 Y139.335 F7800.000
G1 E2.00000 F2400.00000
G1 F900
G1 X100.778 Y139.335 E2.03791
G1 X100.121 Y138.619 E2.08868
G1 X99.229 Y137.973 E2.14622
G1 X98.185 Y137.559 E2.20487
G1 X97.124 Y137.475 E2.26050
G1 X96.034 Y137.726 E2.31894
G1 X95.081 Y138.252 E2.37578
G1 X94.230 Y139.014 E2.43547
G1 X93.982 Y139.335 E2.45663
G1 X93.221 Y139.335 E2.49642
G1 X93.888 Y138.122 E2.56874
G1 X94.497 Y137.267 E2.62355
G1 X95.224 Y136.496 E2.67895
G1 X95.940 Y135.971 E2.72533
G1 X96.526 Y135.700 E2.75906
G1 X97.128 Y135.568 E2.79125
G1 X97.304 Y135.555 E2.80048
G1 X97.877 Y135.605 E2.83050
G1 X98.514 Y135.820 E2.86566
G1 X99.184 Y136.220 E2.90641
G1 X99.869 Y136.827 E2.95423
G1 X100.540 Y137.642 E3.00936
G1 X101.173 Y138.653 E3.07172
G1 X101.478 Y139.281 E3.10816
G1 X102.172 Y139.754 F7800.000
G1 F900
G1 X100.594 Y139.754 E3.19061
G1 X99.841 Y138.933 E3.24878
G1 X99.026 Y138.343 E3.30137
G1 X98.090 Y137.972 E3.35399
G1 X97.155 Y137.898 E3.40296
G1 X96.185 Y138.121 E3.45497
G1 X95.325 Y138.596 E3.50627
G1 X94.538 Y139.301 E3.56148
G1 X94.188 Y139.754 E3.59138
G1 X92.602 Y139.754 E3.67426
G1 X92.903 Y139.044 E3.71454
G1 X93.533 Y137.899 E3.78282
G1 X94.164 Y137.012 E3.83966
G1 X94.284 Y136.867 E3.84952
G1 X94.946 Y136.181 E3.89934
G1 X95.739 Y135.602 E3.95061
G1 X96.373 Y135.309 E3.98713
G1 X96.531 Y135.258 E3.99578
G1 X97.072 Y135.152 E4.02460
G1 X97.302 Y135.135 E4.03662
G1 X97.773 Y135.164 E4.06128
G1 X97.978 Y135.197 E4.07211
G1 X98.691 Y135.437 E4.11142
G1 X99.433 Y135.880 E4.15657
